X:2932
T:Cheshire round
R:Hornpipe
O:England
M:3/2
N:versions in JGCW and MR
A:Lancashire
B:Winder
K:D
f3g e2d2 fga2 | b2e4 d2c2BA |\
f2ef gfed fga2 | A2d4 F2E2D2 ::\
B3c A2G2 FGAF | E2e4 d2c2BA |\
BABc dcBA FGAF | D2d4 F2E2D2 ::\
B2d2 G2d2 F2d2 | E2e4 d2c2BA | \
B2d2 A2B2 F2A2 | D2d4 F2E2D2 ::\
BABc dcBA FGAF | E2e4 d2c2BA |\
BABc dcBA FGAF | D2d4 F2E2D2 :|**


